site/static/docs/images/icons/integrations.svg

<svg fill="none" height="26" viewBox="0 0 26 26" width="26" xmlns="http://www.w3.org/2000/svg"><g fill="#0075ff"><circle cx="13" cy="13" opacity=".15" r="13"/><path clip-rule="evenodd" d="m15.2763 8.08995c.0475-.05699.1179-.08995.1921-.08995h.7816c.1381 0 .25.11193.25.25v1.5 5.5 1.5c0 .1381-.1119.25-.25.25h-.7816c-.0742 0-.1446-.033-.1921-.09l-.9501-1.1401c-.1218-.1461-.2945-.2405-.4832-.2641l-3.124-.3905c-.1251-.0157-.219-.122-.219-.2481v-2.6172-2.1172c0-.1261.0939-.23245.219-.24809l3.124-.3905c.1887-.02359.3614-.11798.4832-.26407zm-6.2763 4.91005v1.8672c0 .8826.65719 1.627 1.5329 1.7365l2.8304.3538.7607.9128c.3325.399.825.6297 1.3444.6297h.7816c.9665 0 1.75-.7835 1.75-1.75v-.75h2.25c.4142 0 .75-.3358.75-.75s-.3358-.75-.75-.75h-2.25v-4h2.25c.4142 0 .75-.3358.75-.75 0-.41421-.3358-.75-.75-.75h-2.25v-.75c0-.9665-.7835-1.75-1.75-1.75h-.7816c-.5194 0-1.0119.23069-1.3444.62968l-.7607.91282-2.8304.3538c-.87571.10946-1.5329.85392-1.5329 1.7365v1.3672h-1.5c-1.38071 0-2.5 1.1193-2.5 2.5v5.25c0 .4142.33579.75.75.75s.75-.3358.75-.75v-5.25c0-.5523.44772-1 1-1z" fill-rule="evenodd"/></g></svg>

<svg width="26" height="26" viewBox="0 0 26 26" fill="none" xmlns="http://www.w3.org/2000/svg">
<circle opacity="0.15" cx="13" cy="13" r="13" fill="#0075ff"/>
<path fill-rule="evenodd" clip-rule="evenodd" d="M15.2763 8.08995C15.3238 8.03296 15.3942 8 15.4684 8H16.25C16.3881 8 16.5 8.11193 16.5 8.25V9.75V15.25V16.75C16.5 16.8881 16.3881 17 16.25 17H15.4684C15.3942 17 15.3238 16.967 15.2763 16.91L14.3262 15.7699C14.2044 15.6238 14.0317 15.5294 13.843 15.5058L10.719 15.1153C10.5939 15.0996 10.5 14.9933 10.5 14.8672V12.25V10.1328C10.5 10.0067 10.5939 9.90035 10.719 9.88471L13.843 9.49421C14.0317 9.47062 14.2044 9.37623 14.3262 9.23014L15.2763 8.08995ZM9 13V14.8672C9 15.7498 9.65719 16.4942 10.5329 16.6037L13.3633 16.9575L14.124 17.8703C14.4565 18.2693 14.949 18.5 15.4684 18.5H16.25C17.2165 18.5 18 17.7165 18 16.75V16H20.25C20.6642 16 21 15.6642 21 15.25C21 14.8358 20.6642 14.5 20.25 14.5H18V10.5H20.25C20.6642 10.5 21 10.1642 21 9.75C21 9.33579 20.6642 9 20.25 9H18V8.25C18 7.2835 17.2165 6.5 16.25 6.5H15.4684C14.949 6.5 14.4565 6.73069 14.124 7.12968L13.3633 8.0425L10.5329 8.3963C9.65719 8.50576 9 9.25022 9 10.1328V11.5H7.5C6.11929 11.5 5 12.6193 5 14V19.25C5 19.6642 5.33579 20 5.75 20C6.16421 20 6.5 19.6642 6.5 19.25V14C6.5 13.4477 6.94772 13 7.5 13H9Z" fill="#0075ff"/>
</svg>
